X: 11384
T: Earl's Tomb, The
R: reel
M: 4/4
K: Gmajor
|:DBBc dBBG|~A3 B AG E/F/G|DBBc dB ~B2|e/f/g dB ^GAA=G|
DB ~B2 dGBG|A^GAB A=GGE|DGBg e/f/g dB|1 AG F/G/A G2 GE:|2 AG F/G/A G2 Bc|
|:dg ~g2 aggf|egde _B=BBG|DBBc dB ~B2|cA^cA d/c/d e/f/g|
d3 e dBAG|~D2 dB ABGE|DGBg e/f/g dB|1 AG F/G/A G2 Bc:|2 AG F/G/A G2|

